dapp/src/images/refresh-icon.svg

<svg fill="none" height="17" viewBox="0 0 19 17" width="19" xmlns="http://www.w3.org/2000/svg"><g clip-rule="evenodd" fill="#b2b7bf" fill-rule="evenodd"><path d="m10.9125 2.59389c-3.40944 0-6.17334 2.76391-6.17334 6.17335 0 .48707-.39485.88191-.88191.88191s-.88191-.39484-.88191-.88191c0-4.38357 3.55359-7.937162 7.93716-7.937162 4.3836 0 7.9372 3.553592 7.9372 7.937162 0 4.38356-3.5536 7.93716-7.9372 7.93716-1.49492 0-2.89582-.4141-4.09121-1.1344-.41719-.2514-.5516-.7934-.30022-1.2105.25137-.4172.79335-.5516 1.21053-.3003.92833.5594 2.01567.8814 3.1809.8814 3.4095 0 6.1734-2.7639 6.1734-6.17336 0-3.40944-2.7639-6.17335-6.1734-6.17335z"/><path d="m6.39918 7.89157c.25059.41766.11516.95938-.30249 1.20997l-2.20477 1.32286c-.41765.2506-.95936.1152-1.20996-.3025l-1.32286-2.20464c-.2506-.41765-.11519-.95937.30246-1.20997.41765-.25061.95937-.11519 1.20998.30246l.86912 1.44846 1.44855-.86913c.41766-.25059.95938-.11516 1.20997.30249z"/></g></svg>

<svg width="19" height="17" viewBox="0 0 19 17" fill="none" xmlns="http://www.w3.org/2000/svg">
<path fill-rule="evenodd" clip-rule="evenodd" d="M10.9125 2.59389C7.50306 2.59389 4.73916 5.3578 4.73916 8.76724C4.73916 9.25431 4.34431 9.64915 3.85725 9.64915C3.37019 9.64915 2.97534 9.25431 2.97534 8.76724C2.97534 4.38367 6.52893 0.830078 10.9125 0.830078C15.2961 0.830078 18.8497 4.38367 18.8497 8.76724C18.8497 13.1508 15.2961 16.7044 10.9125 16.7044C9.41758 16.7044 8.01668 16.2903 6.82129 15.57C6.4041 15.3186 6.26969 14.7766 6.52107 14.3595C6.77244 13.9423 7.31442 13.8079 7.7316 14.0592C8.65993 14.6186 9.74727 14.9406 10.9125 14.9406C14.322 14.9406 17.0859 12.1767 17.0859 8.76724C17.0859 5.3578 14.322 2.59389 10.9125 2.59389Z" fill="#B2B7BF"/>
<path fill-rule="evenodd" clip-rule="evenodd" d="M6.39918 7.89157C6.64977 8.30923 6.51434 8.85095 6.09669 9.10154L3.89192 10.4244C3.47427 10.675 2.93256 10.5396 2.68196 10.1219L1.3591 7.91726C1.1085 7.49961 1.24391 6.95789 1.66156 6.70729C2.07921 6.45668 2.62093 6.5921 2.87154 7.00975L3.74066 8.45821L5.18921 7.58908C5.60687 7.33849 6.14859 7.47392 6.39918 7.89157Z" fill="#B2B7BF"/>
</svg>
